packages/icons/raw/imported/DevicesMacbook.svg

<svg width="32" height="32" viewBox="0 0 32 32" fill="none" xmlns="http://www.w3.org/2000/svg">
<path d="M24.0714 23.5001V23.0001V23.5001ZM7.92857 23.5001V24.0001V23.5001ZM24.0714 20.6429V21.1429V20.6429ZM7.92857 20.6429V20.1429V20.6429ZM6.5 22.0715H7H6.5ZM24.0925 10.5H23.5925H24.0925ZM23.5925 20.6429C23.5925 20.919 23.8164 21.1429 24.0925 21.1429C24.3687 21.1429 24.5925 20.919 24.5925 20.6429H23.5925ZM7.90734 10.5H8.40734H7.90734ZM7.40734 20.6429C7.40734 20.919 7.6312 21.1429 7.90734 21.1429C8.18349 21.1429 8.40734 20.919 8.40734 20.6429H7.40734ZM22.0925 8.5L22.0925 9L22.0925 8.5ZM9.90734 8.50001L9.90734 8.00001L9.90734 8.50001ZM24.0714 23.0001H7.92857V24.0001H24.0714V23.0001ZM24.0714 20.1429L7.92857 20.1429V21.1429L24.0714 21.1429V20.1429ZM26 22.0715C26 21.0064 25.1365 20.1429 24.0714 20.1429V21.1429C24.5843 21.1429 25 21.5587 25 22.0715H26ZM7 22.0715C7 21.5587 7.41574 21.1429 7.92857 21.1429V20.1429C6.86345 20.1429 6 21.0064 6 22.0715H7ZM7.92857 23.0001C7.41574 23.0001 7 22.5844 7 22.0715H6C6 23.1366 6.86345 24.0001 7.92857 24.0001V23.0001ZM24.0714 24.0001C25.1365 24.0001 26 23.1366 26 22.0715H25C25 22.5844 24.5843 23.0001 24.0714 23.0001V24.0001ZM23.5925 10.5V20.6429H24.5925V10.5H23.5925ZM7.40734 10.5L7.40734 20.6429H8.40734L8.40734 10.5H7.40734ZM22.0925 8L9.90734 8.00001L9.90734 9.00001L22.0925 9L22.0925 8ZM24.5925 10.5C24.5925 9.11929 23.4732 8 22.0925 8L22.0925 9C22.921 9 23.5925 9.67157 23.5925 10.5H24.5925ZM8.40734 10.5C8.40734 9.67158 9.07892 9.00001 9.90734 9.00001L9.90734 8.00001C8.52663 8.00001 7.40734 9.1193 7.40734 10.5H8.40734Z" fill="black"/>
</svg>

<svg width="32" height="32" fill="none" xmlns="http://www.w3.org/2000/svg"><path d="M24.071 23.5V23v.5Zm-16.142 0v.5-.5Zm16.142-2.857v.5-.5Zm-16.142 0v-.5.5ZM6.5 22.07H7h-.5ZM24.093 10.5h-.5.5Zm-.5 10.143a.5.5 0 0 0 1 0h-1ZM7.907 10.5h.5-.5Zm-.5 10.143a.5.5 0 0 0 1 0h-1ZM22.093 8.5V9v-.5Zm-12.186 0V8v.5ZM24.071 23H7.93v1H24.07v-1Zm0-2.857H7.93v1H24.07v-1ZM26 22.07a1.929 1.929 0 0 0-1.929-1.928v1c.513 0 .929.416.929.928h1Zm-19 0c0-.512.416-.928.929-.928v-1A1.929 1.929 0 0 0 6 22.07h1Zm.929.93A.929.929 0 0 1 7 22.07H6c0 1.066.863 1.93 1.929 1.93v-1Zm16.142 1A1.929 1.929 0 0 0 26 22.07h-1a.929.929 0 0 1-.929.93v1ZM23.592 10.5v10.143h1V10.5h-1Zm-16.185 0v10.143h1V10.5h-1ZM22.093 8H9.907v1h12.186V8Zm2.5 2.5a2.5 2.5 0 0 0-2.5-2.5v1a1.5 1.5 0 0 1 1.5 1.5h1Zm-16.186 0a1.5 1.5 0 0 1 1.5-1.5V8a2.5 2.5 0 0 0-2.5 2.5h1Z" fill="#000"/></svg>
